icon_installer/data/icons/scalable/actions/show-cigarette-none-symbolic.svg

<?xml version="1.0" encoding="UTF-8"?>
<svg height="16px" viewBox="0 0 16 16" width="16px" xmlns="http://www.w3.org/2000/svg">
    <g fill="#222222">
        <path d="m 3 0 v 0.5 c 0 2.480469 2.019531 4.5 4.5 4.5 h 3 c 0.832031 0 1.5 0.664062 1.5 1.5 v 0.5 h 3 v -0.5 c 0 -2.480469 -2.019531 -4.5 -4.5 -4.5 h -3 c -0.835938 0 -1.5 -0.667969 -1.5 -1.5 v -0.5 z m 0 0" fill-opacity="0.34902"/>
        <path d="m 0 8 v 4 h 8.90625 l -4 -4 z m 7.03125 0 l 3.96875 3.96875 v -3.96875 z m 4.96875 0 v 4 h 1 v -4 z m 2 0 v 4 h 1 v -4 z m 0 0"/>
        <path d="m 1.53125 0.46875 l -1.0625 1.0625 l 14 14 l 1.0625 -1.0625 z m 0 0"/>
    </g>
</svg>

<svg xmlns="http://www.w3.org/2000/svg" width="16" height="16"><g fill="#222"><path fill-opacity=".349" d="M3 0v.5C3 2.98 5.02 5 7.5 5h3c.832 0 1.5.664 1.5 1.5V7h3v-.5C15 4.02 12.98 2 10.5 2h-3C6.664 2 6 1.332 6 .5V0zm0 0"/><path d="M0 8v4h8.906l-4-4zm7.031 0L11 11.969V8zM12 8v4h1V8zm2 0v4h1V8zm0 0"/><path d="M1.531.469.47 1.53l14 14 1.062-1.062zm0 0"/></g></svg>
